X: 22556
T: Lady MacKenzie Of Coul
R: reel
M: 4/4
K: Dmajor
FG|:A3B A2d2|B2G2 G2ed|c2A2 A2Bc|defg a2FG|
A3B A2d2|B2G2 G2d2|cdec A2c2|1 d4d2 FG:|2 d4d2 g2||
f2a2 a3a|b2g2 e3g|f2a2 d2f2|edcB A2g2|
f2a2 a3a|b2g2 e3g|f2a2 cdec|d4 d2g2|
f2a2 a3a|b2g2 e3g|f2a2 d2f2|edcB A2Bc|
d4 A3F|G2B2 E2g2|f2ed e2dc|d4 d2||

